X:1
T:Come by the Hills
C:Traditional tune; Lyrics contemporary
S:Richard Walker
M:3/4
L:1/4
V:1 clef=treble
K:D
%
| "D"F2 E/2F/2 | "Em"E2 D/2B,/2 | "D"A,2 A, | "G"B, D3/2 E/2 | "D"D3- | D2 A, |
w:Come by the hills to the land where fan-cy is free._ And
w:Come by the hills to the land where life is  a song._ And
w:Come by the hills to the land where leg-end  re-mains._ Where
%
| "D"D2 E/2F/2 | "G"G2 F/2E/2 | "D"F2 E/2D/2 | "Bm"B, D F | "A"E3- | E2 F/2G/2 |
w:stand where the peaks meet the sky and the lochs meet the sea._ Where the
w:sing while the birds fill  the air with their joy all day long._ Where the
w:stor-ies of old fill the heart and may yet come  a-gain._ Where our
%
| "D"A/2 F3/2 E | "Bm"D2 E/2F/2 | "G"G A B | "D"A2 F/2D/2 | "A7"A,3- | A,2 E |
w:ri-vers run clear  and  the brack-en is gold in the sun._ And~the
w:trees sway in time and_  ev-en the wind sings in tune._ And,~the
w:past has been lost and the fu-ture has still to be won._ And,~the
%
| "D"F2 E/2F/2 | "Em"E D3/2 B,/2 | "D"A,2 A, | "G"B, D3/2 "A7"E/2 | "D"D3- | D3 |]
w:cares of to-mor-row can wait 'til this day is done._
w:cares of to-mor-row can wait 'til this day is done._
w:cares of to-mor-row can wait 'til this day is done._
